X:1
T:Title
%%score { ( 1 5 ) | ( 2 3 4 ) }
L:1/8
Q:1/4=106
M:4/4
K:Bb
V:1 treble nm="Grand Piano"
V:5 treble 
V:2 bass 
V:3 bass 
V:4 bass 
V:1
 B2 B>B B2 DE | A2 G>^F G4 | c2 c>c cedc | [DB]4 [DF]4 | B2 B>B B2 DE | %5
w: J.~Lincoln~Hall * * * * *|||||
 [B,FA]2 [B,EG]>[B,E^F] [B,EG]4 | [Fc]2 [Fc]>[Fc] .[=Ec]2 [CEA][B,EG] | [B,=EG]4 [A,F]4 | %8
w: |||
 [Ec]2 [Ec]>[Ec] [Ec][Ge][Fd][Ec] | [DB]2 [EG]>G [DF]4 | [Ec]2 [Ec]>[Ec] [Ec][Ge][Fd][Ec] | z4 d4 | %12
w: ||||
 G2 G>G [^FA]2 [FA]>[FA] | B2 B>B [Ac]4 | f2 d>B [Ge]2 [Gd][Gc] | [Ec]4 [DB]4 | %16
w: ||||
 [DB]2 [DB]>[DB] [DB]2 [DB]>[DB] | [CEB]4[K:bass] [CEA]4 | [Ec]2 [Ec]>[Ec] [Ec]2 [Fd]>[Ec] | %19
w: |||
 [Ec]4[K:bass][K:treble] [DB]4 | G2 G>G [^FA]2 [FA]>[FA] | B2 B>B [Ac]4 | f2 d>B [Ge]2 [Gd][Gc] | %23
w: ||||
[M:8/4] [Ec]4 [DB]4 z8 |] %24
w: |
V:2
 B,2 B,>B, B,2 D,E, | [E,B,F]2 [E,B,E]>[E,B,E] [E,B,E]4 | z4 .E2 z2 | [B,,B,]4 [B,,B,]4 | %4
 B,2 B,>B, B,2 D,E, | E,2 E,>E, E,4 | [C,A,]2 [C,A,]>[C,A,] z[K:treble] B[K:bass]C,C, | C,4 F,4 | %8
 z2 [F,A,]2 [F,A,]2 [F,A,]2 | z2 z z/ E/ B,2 B,2 | z2 [F,A,]2 [F,A,]2 [F,A,]2 | %11
 z2 z z/[K:treble] G/ F4 | [E,B,E]2 [E,B,E]>[E,B,E] [D,D]2 [D,D]>[D,D] | %13
 [G,DG]2 [G,DG]>[G,DG] [F,E]4 | [B,DF]2 [B,DF]>[B,DF][K:bass] [C,C]2 [E,=B,][E,C] | %15
 [F,A,]4 [B,,B,]4 | [B,,F,]2 [F,,F,]2 [B,,F,]2 [F,,F,]2 | [C,F,]2 z2 [C,F,]2 z2 | %18
 [C,F,]2 [F,,F,]2 [C,F,]2 [F,,F,]2 | [C,F,]2 z2 [B,,F,]2 F,,2 | %20
 [E,B,E]2 [E,B,E]>[E,B,E] [D,D]2 [D,D]>[D,D] | [G,DG]2 [G,DG]>[G,DG] [F,E]4 | %22
 [B,DF]2 [B,DF]>[B,DF][K:bass] [C,C]2 [E,=B,][E,C] |[M:8/4] [F,A,]4 [B,,B,]4 z8 |] %24
V:3
 x8 | x8 | [F,A,E]2 [F,A,E]>[F,A,E] [F,A,]-[F,A,G][F,A,F][F,A,E] | x8 | x8 | x8 | %6
 z4 [C,G,]2[K:treble][K:bass] z2 | x8 | F,,8 | z2 B,2 z4 | F,,8 | z2 B,2[K:treble] B,2 z2 | x8 | %13
 x8 | x4[K:bass] x4 | x8 | x8 | x8 | x8 | x8 | x8 | x8 | x4[K:bass] x4 |[M:8/4] x16 |] %24
V:4
 x8 | x8 | x8 | x8 | x8 | x8 | x5[K:treble] x[K:bass] x2 | x8 | x8 | B,,8 | x8 | B,,8[K:treble] | %12
 x8 | x8 | x4[K:bass] x4 | x8 | x8 | x8 | x8 | x8 | x8 | x8 | x4[K:bass] x4 |[M:8/4] x16 |] %24
V:5
 x8 | x8 | x8 | x8 | x8 | x8 | x8 | x8 | x8 | x8 | x8 | [DB]2 [Ge]>e z2 B,2 | x8 | x8 | x8 | x8 | %16
 x8 | z2[K:bass] [F,,F,]2 z2 [F,,F,]2 | x8 | z2[K:bass] [F,,F,]2[K:treble] z2 F,2 | x8 | x8 | x8 | %23
[M:8/4] x16 |] %24

